public/logo.svg

<?xml version="1.0" encoding="UTF-8" standalone="no"?>
<!-- Created with Inkscape (http://www.inkscape.org/) -->

<svg
   width="73.924988mm"
   height="73.924995mm"
   viewBox="0 0 73.924988 73.924995"
   version="1.1"
   id="svg1"
   xmlns:inkscape="http://www.inkscape.org/namespaces/inkscape"
   xmlns:sodipodi="http://sodipodi.sourceforge.net/DTD/sodipodi-0.dtd"
   xmlns="http://www.w3.org/2000/svg"
   xmlns:svg="http://www.w3.org/2000/svg">
  <sodipodi:namedview
     id="namedview1"
     pagecolor="#ffffff"
     bordercolor="#999999"
     borderopacity="1"
     inkscape:showpageshadow="2"
     inkscape:pageopacity="0"
     inkscape:pagecheckerboard="0"
     inkscape:deskcolor="#d1d1d1"
     inkscape:document-units="mm" />
  <defs
     id="defs1">
    <clipPath
       id="clip0_731_16651">
      <rect
         width="36"
         height="36"
         rx="18"
         fill=""
         id="rect3"
         x="0"
         y="0" />
    </clipPath>
  </defs>
  <g
     inkscape:label="Layer 1"
     inkscape:groupmode="layer"
     id="layer1"
     transform="translate(-58.864866,-119.98226)">
    <g
       clip-path="url(#clip0_731_16651)"
       id="g2"
       transform="matrix(2.0534719,0,0,2.0534719,58.864865,119.98226)">
      <path
         d="M 0,18 C 0,27.9411 8.05888,36 18,36 27.9411,36 36,27.9411 36,18 36,8.05888 27.9411,0 18,0 8.05888,0 0,8.05888 0,18 Z"
         fill="#d9008d"
         id="path1" />
      <path
         d="M 26.1788,8.15604 C 26.153,8.01049 26.0988,7.87145 26.0192,7.74686 25.9397,7.62228 25.8363,7.5146 25.7151,7.42997 25.594,7.34535 25.4573,7.28543 25.3129,7.25366 25.1685,7.22188 25.0193,7.21887 24.8738,7.24479 l -1.0012,0.18 -2.1825,3.82501 4.8825,-0.8663 z m -5.1862,-0.225 -4.6238,0.82125 -2.1825,3.80251 4.6238,-0.81 z M 13.5001,9.25853 9.38255,9.97854 C 9.09337,10.0283 8.83506,10.189 8.66272,10.4265 8.49038,10.664 8.41766,10.9594 8.46005,11.2498 l 0.3825,2.25 2.46375,-0.4388 z M 9.00005,14.6248 v 10.125 c 0,0.5967 0.23705,1.169 0.65901,1.591 0.42194,0.4219 0.99424,0.659 1.59104,0.659 h 13.5 c 0.5967,0 1.169,-0.2371 1.5909,-0.659 0.422,-0.422 0.6591,-0.9943 0.6591,-1.591 v -10.125 z m 11.54255,7.0875 -2.9925,2.25 c -0.1672,0.1253 -0.3659,0.2017 -0.574,0.2204 -0.2081,0.0188 -0.4173,-0.0208 -0.6042,-0.1142 -0.1868,-0.0934 -0.344,-0.237 -0.4538,-0.4148 -0.1099,-0.1777 -0.168,-0.3825 -0.168,-0.5914 v -4.5 c 0,-0.2089 0.0581,-0.4137 0.168,-0.5915 0.1098,-0.1777 0.267,-0.3213 0.4538,-0.4147 0.1869,-0.0935 0.3961,-0.133 0.6042,-0.1143 0.2081,0.0188 0.4068,0.0951 0.574,0.2205 l 2.9925,2.25 c 0.1397,0.1048 0.2531,0.2407 0.3312,0.3969 0.0781,0.1562 0.1188,0.3284 0.1188,0.5031 0,0.1746 -0.0407,0.3469 -0.1188,0.5031 -0.0781,0.1562 -0.1915,0.2921 -0.3312,0.3969 z"
         fill="#ffffff"
         id="path2" />
    </g>
  </g>
</svg>

<svg width="139" height="36" viewBox="0 0 139 36" fill="none" xmlns="http://www.w3.org/2000/svg">
<g clip-path="url(#clip0_731_16651)">
<path d="M0 18C0 27.9411 8.05888 36 18 36C27.9411 36 36 27.9411 36 18C36 8.05888 27.9411 0 18 0C8.05888 0 0 8.05888 0 18Z" fill="#D9008D"/>
<path d="M26.1788 8.15604C26.153 8.01049 26.0988 7.87145 26.0192 7.74686C25.9397 7.62228 25.8363 7.5146 25.7151 7.42997C25.594 7.34535 25.4573 7.28543 25.3129 7.25366C25.1685 7.22188 25.0193 7.21887 24.8738 7.24479L23.8726 7.42479L21.6901 11.2498L26.5726 10.3835L26.1788 8.15604ZM20.9926 7.93104L16.3688 8.75229L14.1863 12.5548L18.8101 11.7448L20.9926 7.93104ZM13.5001 9.25853L9.38255 9.97854C9.09337 10.0283 8.83506 10.189 8.66272 10.4265C8.49038 10.664 8.41766 10.9594 8.46005 11.2498L8.84255 13.4998L11.3063 13.061L13.5001 9.25853ZM9.00005 14.6248V24.7498C9.00005 25.3465 9.2371 25.9188 9.65906 26.3408C10.081 26.7627 10.6533 26.9998 11.2501 26.9998H24.7501C25.3468 26.9998 25.9191 26.7627 26.341 26.3408C26.763 25.9188 27.0001 25.3465 27.0001 24.7498V14.6248H9.00005ZM20.5426 21.7123L17.5501 23.9623C17.3829 24.0876 17.1842 24.164 16.9761 24.1827C16.768 24.2015 16.5588 24.1619 16.3719 24.0685C16.1851 23.9751 16.0279 23.8315 15.9181 23.6537C15.8082 23.476 15.7501 23.2712 15.7501 23.0623V18.5623C15.7501 18.3534 15.8082 18.1486 15.9181 17.9708C16.0279 17.7931 16.1851 17.6495 16.3719 17.5561C16.5588 17.4626 16.768 17.4231 16.9761 17.4418C17.1842 17.4606 17.3829 17.5369 17.5501 17.6623L20.5426 19.9123C20.6823 20.0171 20.7957 20.153 20.8738 20.3092C20.9519 20.4654 20.9926 20.6376 20.9926 20.8123C20.9926 20.9869 20.9519 21.1592 20.8738 21.3154C20.7957 21.4716 20.6823 21.6075 20.5426 21.7123Z" fill="white"/>
</g>
<g clip-path="url(#clip1_731_16651)">
<path d="M64.7797 14.3008C63.9562 13.8283 62.991 13.592 61.884 13.592C60.777 13.592 59.832 13.8215 59.0085 14.2805C58.185 14.7395 57.5572 15.3909 57.1252 16.2346C56.6932 17.0784 56.4772 18.047 56.4772 19.1405C56.4772 20.234 56.6932 21.2195 57.1252 22.0565C57.5572 22.8935 58.185 23.5449 59.0085 24.0106C59.832 24.4764 60.7972 24.7093 61.9042 24.7093C63.0112 24.7093 63.9697 24.4764 64.7797 24.0106C65.5897 23.5449 66.2141 22.8969 66.6529 22.0666C67.0916 21.2364 67.311 20.261 67.311 19.1405C67.311 18.02 67.095 17.0851 66.663 16.2549C66.231 15.4246 65.6032 14.7733 64.7797 14.3008ZM63.8786 20.8719C63.7099 21.3376 63.4567 21.6988 63.1192 21.9553C62.7817 22.2118 62.3767 22.34 61.9042 22.34C61.4317 22.34 61.0267 22.2118 60.6892 21.9553C60.3517 21.6988 60.0952 21.3343 59.9197 20.8618C59.7442 20.3893 59.6565 19.8223 59.6565 19.1608C59.6565 18.4993 59.7442 17.8884 59.9197 17.4091C60.0952 16.9299 60.3517 16.5654 60.6892 16.3156C61.0267 16.0659 61.425 15.941 61.884 15.941C62.397 15.941 62.8189 16.076 63.1496 16.346C63.4804 16.616 63.7267 16.9906 63.8887 17.4699C64.0507 17.9491 64.1317 18.5128 64.1317 19.1608C64.1317 19.8088 64.0474 20.4061 63.8786 20.8719ZM77.76 20.8111C77.5035 21.1689 77.1795 21.4389 76.788 21.6211C76.3965 21.8034 75.9375 21.8945 75.411 21.8945C74.6415 21.8945 74.0002 21.7021 73.4872 21.3174C72.9742 20.9326 72.5929 20.4028 72.3431 19.7278C72.0934 19.0528 71.9685 18.2833 71.9685 17.4193C71.9685 16.5553 72.0934 15.7318 72.3431 15.0703C72.5929 14.4088 72.9742 13.8924 73.4872 13.5211C74.0002 13.1499 74.6415 12.9643 75.411 12.9643C75.8835 12.9643 76.3087 13.0385 76.6867 13.187C77.0647 13.3355 77.3854 13.5549 77.6486 13.8451C77.9119 14.1354 78.084 14.4695 78.165 14.8475H81.567C81.432 13.835 81.0877 12.971 80.5342 12.2555C79.9807 11.54 79.272 11.0034 78.408 10.6456C77.544 10.2879 76.5517 10.109 75.4312 10.109C74.0002 10.109 72.7549 10.4229 71.6951 11.0506C70.6354 11.6784 69.8254 12.5458 69.2651 13.6528C68.7049 14.7598 68.4247 16.0153 68.4247 17.4193C68.4247 18.8233 68.7015 20.099 69.255 21.206C69.8085 22.313 70.6084 23.1804 71.6546 23.8081C72.7009 24.4359 73.953 24.7498 75.411 24.7498C76.572 24.7498 77.6149 24.5338 78.5396 24.1018C79.4644 23.6698 80.2035 23.0555 80.757 22.259C81.3105 21.4625 81.621 20.5513 81.6885 19.5253H78.2257C78.1717 20.0248 78.0165 20.4534 77.76 20.8111ZM46.7179 19.8088C46.7179 20.3083 46.674 20.7133 46.5862 21.0238C46.4985 21.3343 46.3466 21.5705 46.1306 21.7325C45.9146 21.8945 45.6109 21.9755 45.2194 21.9755C44.6659 21.9755 44.2642 21.8135 44.0145 21.4895C43.7647 21.1655 43.6399 20.6458 43.6399 19.9303H40.5V20.234C40.5 21.179 40.6789 21.989 41.0366 22.664C41.3944 23.339 41.9276 23.8554 42.6364 24.2131C43.3451 24.5709 44.2192 24.7498 45.2587 24.7498C46.3927 24.7498 47.3242 24.5641 48.0532 24.1929C48.7822 23.8216 49.3222 23.2681 49.6732 22.5324C50.0242 21.7966 50.1997 20.8888 50.1997 19.8088V10.433H46.7167V19.8088H46.7179ZM51.9829 24.4258H55.1419V13.8553H51.9829V24.4258ZM54.5231 9.4205C54.2464 9.272 53.9325 9.19775 53.5815 9.19775C53.2035 9.19775 52.8761 9.272 52.5994 9.4205C52.3226 9.569 52.1066 9.76475 51.9514 10.0078C51.7961 10.2508 51.7185 10.541 51.7185 10.8785C51.7185 11.216 51.7961 11.5096 51.9514 11.7594C52.1066 12.0091 52.3192 12.2116 52.5892 12.3669C52.8592 12.5221 53.1832 12.5998 53.5612 12.5998C53.9392 12.5998 54.2497 12.5255 54.5332 12.377C54.8167 12.2285 55.0294 12.026 55.1711 11.7695C55.3129 11.513 55.3837 11.2228 55.3837 10.8988C55.3837 10.5748 55.3095 10.2676 55.161 10.0179C55.0125 9.76813 54.7999 9.569 54.5231 9.4205ZM82.9237 24.4258H86.0827V13.8553H82.9237V24.4258ZM107.305 14.3109C106.515 13.8316 105.546 13.592 104.399 13.592C103.332 13.592 102.394 13.8316 101.584 14.3109C100.774 14.7901 100.146 15.455 99.7008 16.3055C99.2553 17.156 99.0326 18.1078 99.0326 19.1608C99.0326 20.3083 99.2587 21.2971 99.711 22.1274C100.163 22.9576 100.794 23.5955 101.604 24.041C102.414 24.4865 103.366 24.7093 104.46 24.7093C105.769 24.7093 106.856 24.4291 107.72 23.8689C108.584 23.3086 109.178 22.5088 109.502 21.4693H106.626C106.491 21.7933 106.252 22.0498 105.907 22.2388C105.563 22.4278 105.135 22.5223 104.622 22.5223C104.082 22.5223 103.629 22.4143 103.265 22.1983C102.9 21.9823 102.624 21.6819 102.435 21.2971C102.25 20.9214 102.143 20.459 102.113 19.91H109.704V19.5253C109.704 18.3238 109.502 17.2741 109.097 16.3764C108.692 15.4786 108.094 14.7901 107.305 14.3109ZM102.111 18.047V18.0268C102.165 17.5543 102.293 17.1493 102.495 16.8118C102.698 16.4743 102.964 16.2178 103.295 16.0423C103.626 15.8668 104.007 15.779 104.439 15.779C104.871 15.779 105.249 15.8701 105.573 16.0524C105.897 16.2346 106.15 16.4979 106.333 16.8421C106.515 17.1864 106.62 17.588 106.647 18.047H102.111ZM137.748 15.4145C137.424 14.7935 136.915 14.3311 136.219 14.0274C135.524 13.7236 134.637 13.5718 133.557 13.5718C132.477 13.5718 131.656 13.6899 130.975 13.9261C130.293 14.1624 129.766 14.5134 129.395 14.9791C129.024 15.4449 128.784 16.0085 128.676 16.67H131.694C131.775 16.319 131.953 16.049 132.23 15.86C132.507 15.671 132.909 15.5765 133.435 15.5765C133.867 15.5765 134.211 15.6474 134.468 15.7891C134.724 15.9309 134.907 16.1435 135.015 16.427C135.123 16.7105 135.177 17.0683 135.177 17.5003V17.9863H133.476C132.355 17.9863 131.407 18.1111 130.63 18.3609C129.854 18.6106 129.264 18.9819 128.859 19.4746C128.454 19.9674 128.251 20.6053 128.251 21.3883C128.251 22.0768 128.4 22.6708 128.697 23.1703C128.994 23.6698 129.415 24.0511 129.962 24.3144C130.509 24.5776 131.154 24.7093 131.896 24.7093C132.45 24.7093 132.946 24.6384 133.384 24.4966C133.823 24.3549 134.181 24.1693 134.458 23.9398C134.734 23.7103 134.974 23.4403 135.177 23.1298H135.278L135.42 24.4258H138.234V17.7635C138.234 16.8185 138.072 16.0355 137.748 15.4145ZM135.177 20.396C135.177 20.855 135.082 21.2533 134.893 21.5908C134.704 21.9283 134.458 22.1814 134.154 22.3501C133.85 22.5189 133.489 22.6033 133.071 22.6033C132.747 22.6033 132.47 22.5493 132.24 22.4413C132.011 22.3333 131.825 22.1746 131.683 21.9654C131.542 21.7561 131.471 21.4895 131.471 21.1655C131.471 20.7875 131.572 20.4871 131.775 20.2644C131.977 20.0416 132.267 19.8796 132.645 19.7784C133.023 19.6771 133.476 19.6265 134.002 19.6265H135.177V20.396ZM85.464 9.4205C85.1872 9.272 84.8734 9.19775 84.5224 9.19775C84.1444 9.19775 83.817 9.272 83.5402 9.4205C83.2635 9.569 83.0475 9.76475 82.8922 10.0078C82.737 10.2508 82.6594 10.541 82.6594 10.8785C82.6594 11.216 82.737 11.5096 82.8922 11.7594C83.0475 12.0091 83.2601 12.2116 83.5301 12.3669C83.8001 12.5221 84.1241 12.5998 84.5021 12.5998C84.8801 12.5998 85.1906 12.5255 85.4741 12.377C85.7576 12.2285 85.9702 12.026 86.112 11.7695C86.2537 11.513 86.3246 11.2228 86.3246 10.8988C86.3246 10.5748 86.2504 10.2676 86.1019 10.0179C85.9534 9.76813 85.7407 9.569 85.464 9.4205ZM125.445 14.0375C124.912 13.7405 124.267 13.592 123.511 13.592C122.755 13.592 122.145 13.7338 121.598 14.0173C121.051 14.3008 120.582 14.7395 120.19 15.3335H120.109C119.88 14.7665 119.512 14.3345 119.006 14.0375C118.5 13.7405 117.889 13.592 117.173 13.592C116.458 13.592 115.86 13.7371 115.341 14.0274C114.821 14.3176 114.385 14.7463 114.034 15.3133H113.933L113.872 13.8553H110.916V24.4258H114.075V18.3508C114.075 17.5678 114.22 16.9873 114.51 16.6093C114.801 16.2313 115.229 16.0423 115.796 16.0423C116.363 16.0423 116.775 16.2346 117.031 16.6194C117.288 17.0041 117.416 17.5813 117.416 18.3508V24.4258H120.595V18.3508C120.595 17.8378 120.66 17.4058 120.788 17.0548C120.916 16.7038 121.108 16.4473 121.365 16.2853C121.621 16.1233 121.932 16.0423 122.296 16.0423C122.85 16.0423 123.255 16.2313 123.511 16.6093C123.768 16.9873 123.896 17.5678 123.896 18.3508V24.4258H127.075V17.3585C127.075 16.562 126.937 15.8836 126.66 15.3234C126.384 14.7631 125.979 14.3345 125.445 14.0375ZM96.2673 14.0476C95.7273 13.7439 95.0658 13.592 94.2828 13.592C93.5538 13.592 92.916 13.7371 92.3692 14.0274C91.8225 14.3176 91.3871 14.7395 91.0631 15.293H90.9618L90.9011 13.8553H87.9041V24.4258H91.0631V18.4318C91.0631 17.6083 91.2217 17.0041 91.539 16.6194C91.8562 16.2346 92.3321 16.0423 92.9666 16.0423C93.6011 16.0423 94.0263 16.238 94.3233 16.6295C94.6203 17.021 94.7688 17.615 94.7688 18.4115V24.4258H97.9278V17.561C97.9278 16.697 97.7861 15.9714 97.5026 15.3841C97.2191 14.7969 96.8073 14.3514 96.2673 14.0476Z" fill="white"/>
</g>
<defs>
<clipPath id="clip0_731_16651">
<rect width="36" height="36" rx="18" fill="white"/>
</clipPath>
<clipPath id="clip1_731_16651">
<rect width="97.74" height="27" fill="white" transform="translate(40.5 4.5)"/>
</clipPath>
</defs>
</svg>
